X: 8502
T: Creche, The
R: slip jig
M: 9/8
K: Gmajor
|:G3 GAB ABc|B3 Bcd cd^d|edc gec Bcd|cBA FGA DEF|
G3 GAB ABc|B3 Bcd cd^d|edc gec Bcd|cBA FAF G3:|
|:G3 G3 F3|A3 G3 G2 g|fed cBA Bcd|cBA FGA DEF|
[1 G3 G3 F3|A3 G3 G2 g|fed cBA Bcd|cBA FAF G3:|
[2 G3 GAB ABc|B3 Bcd cd^d|edc gec Bcd|cBA FAF G3||

